assets/medical-grey/MedicalGrey20.svg

<svg xmlns="http://www.w3.org/2000/svg" id="icons" viewBox="0 0 64 64"><defs><style>.cls-1{fill:none;stroke:#000;stroke-linecap:round;stroke-linejoin:round;stroke-width:2px}</style></defs><g id="monitor"><path d="M5.06 13.84h54.01v36.19H5.06zM5.06 38.72h54.01" class="cls-1"/><circle cx="12.98" cy="44.58" r="2.65" class="cls-1"/><circle cx="23.06" cy="44.58" r="2.65" class="cls-1"/><path d="M32.12 44.58h8.73M45.7 44.58h8.72M59.07 27.23H44.98l-4.67-9.1-6.33 16.43-3.67-7.33h-7.06l-3.83-7.24-3.56 7.24H5.06" class="cls-1"/></g></svg>

<svg xmlns="http://www.w3.org/2000/svg" id="icons" viewBox="0 0 64 64"><defs><style>.cls-1{fill:none;stroke:#000;stroke-linecap:round;stroke-linejoin:round;stroke-width:2px;}</style></defs><g id="monitor"><path d="M5.06 13.84H59.07V50.03H5.06z" class="cls-1"/><path d="M5.06 38.72 59.07 38.72" class="cls-1"/><circle cx="12.98" cy="44.58" r="2.65" class="cls-1"/><circle cx="23.06" cy="44.58" r="2.65" class="cls-1"/><path d="M32.12 44.58 40.85 44.58" class="cls-1"/><path d="M45.7 44.58 54.42 44.58" class="cls-1"/><path d="M59.07 27.23 44.98 27.23 40.31 18.13 33.98 34.56 30.31 27.23 23.25 27.23 19.42 19.99 15.86 27.23 5.06 27.23" class="cls-1"/></g></svg>
